documentation/public/assets/images/avatar-dos-and-donts-05.svg

<svg width="126" height="158" viewBox="0 0 126 158" fill="none" xmlns="http://www.w3.org/2000/svg">
<g clip-path="url(#clip0_11653_104474)">
<g clip-path="url(#clip1_11653_104474)">
<path fill-rule="evenodd" clip-rule="evenodd" d="M109.5 1.50098C100.94 1.50098 94 8.44054 94 17.001C94 25.5614 100.94 32.501 109.5 32.501C118.06 32.501 125 25.5614 125 17.001C125 8.44054 118.06 1.50098 109.5 1.50098ZM102.5 14.001C102.5 10.135 105.634 7.00098 109.5 7.00098C113.366 7.00098 116.5 10.135 116.5 14.001C116.5 17.867 113.366 21.001 109.5 21.001C105.634 21.001 102.5 17.867 102.5 14.001ZM99.7243 24.7924C104.752 31.0755 114.254 31.0681 119.275 24.7924C118.187 23.6868 116.674 23.001 115 23.001H113.862C111.106 24.3365 107.89 24.3345 105.138 23.001H104C102.326 23.001 100.813 23.6868 99.7243 24.7924Z" fill="black"/>
<mask id="mask0_11653_104474" style="mask-type:luminance" maskUnits="userSpaceOnUse" x="94" y="1" width="31" height="32">
<path fill-rule="evenodd" clip-rule="evenodd" d="M109.5 1.50098C100.94 1.50098 94 8.44054 94 17.001C94 25.5614 100.94 32.501 109.5 32.501C118.06 32.501 125 25.5614 125 17.001C125 8.44054 118.06 1.50098 109.5 1.50098ZM102.5 14.001C102.5 10.135 105.634 7.00098 109.5 7.00098C113.366 7.00098 116.5 10.135 116.5 14.001C116.5 17.867 113.366 21.001 109.5 21.001C105.634 21.001 102.5 17.867 102.5 14.001ZM99.7243 24.7924C104.752 31.0755 114.254 31.0681 119.275 24.7924C118.187 23.6868 116.674 23.001 115 23.001H113.862C111.106 24.3365 107.89 24.3345 105.138 23.001H104C102.326 23.001 100.813 23.6868 99.7243 24.7924Z" fill="white"/>
</mask>
<g mask="url(#mask0_11653_104474)">
<rect x="93.5" y="1.00098" width="32" height="32" fill="#CED3D7"/>
</g>
<circle cx="109.5" cy="17.001" r="15" stroke="#0D78AA" stroke-width="2"/>
<mask id="mask1_11653_104474" style="mask-type:luminance" maskUnits="userSpaceOnUse" x="93" y="1" width="33" height="33">
<circle cx="109.5" cy="17.001" r="15" fill="white" stroke="white" stroke-width="2"/>
</mask>
<g mask="url(#mask1_11653_104474)">
</g>
</g>
</g>
<rect x="3" y="37.5718" width="122" height="119" rx="5" fill="white" stroke="#D2D6D9"/>
<path d="M23.417 96.8608L26.083 91.8638H27.3408L24.0049 97.9819V101.858H22.8291V98.0366L19.5 91.8638H20.7715L23.417 96.8608ZM35.0176 98.105C35.0176 99.3263 34.71 100.281 34.0947 100.969C33.4795 101.653 32.6296 101.995 31.5449 101.995C30.875 101.995 30.2803 101.837 29.7607 101.523C29.2412 101.208 28.8402 100.757 28.5576 100.169C28.2751 99.5815 28.1338 98.8934 28.1338 98.105C28.1338 96.8836 28.4391 95.9334 29.0498 95.2544C29.6605 94.5708 30.5081 94.229 31.5928 94.229C32.641 94.229 33.4727 94.5776 34.0879 95.2749C34.7077 95.9722 35.0176 96.9155 35.0176 98.105ZM29.3096 98.105C29.3096 99.062 29.501 99.7912 29.8838 100.292C30.2666 100.794 30.8294 101.044 31.5723 101.044C32.3151 101.044 32.8779 100.796 33.2607 100.299C33.6481 99.798 33.8418 99.0666 33.8418 98.105C33.8418 97.1525 33.6481 96.4302 33.2607 95.938C32.8779 95.4412 32.3105 95.1929 31.5586 95.1929C30.8158 95.1929 30.2552 95.4367 29.877 95.9243C29.4987 96.4119 29.3096 97.1388 29.3096 98.105ZM38.0801 94.3657V99.2261C38.0801 99.8368 38.2191 100.292 38.4971 100.593C38.7751 100.894 39.2103 101.044 39.8027 101.044C40.5866 101.044 41.1585 100.83 41.5186 100.402C41.8831 99.9735 42.0654 99.2739 42.0654 98.3032V94.3657H43.2002V101.858H42.2637L42.0996 100.853H42.0381C41.8057 101.222 41.4821 101.505 41.0674 101.701C40.6572 101.897 40.1878 101.995 39.6592 101.995C38.7477 101.995 38.0641 101.778 37.6084 101.345C37.1572 100.912 36.9316 100.22 36.9316 99.2671V94.3657H38.0801ZM49.0312 94.229C49.3639 94.229 49.6624 94.2563 49.9268 94.311L49.7695 95.3638C49.4596 95.2954 49.1862 95.2612 48.9492 95.2612C48.3431 95.2612 47.8236 95.5073 47.3906 95.9995C46.9622 96.4917 46.748 97.1047 46.748 97.8384V101.858H45.6133V94.3657H46.5498L46.6797 95.7534H46.7344C47.0124 95.2658 47.3473 94.8898 47.7393 94.6255C48.1312 94.3612 48.5618 94.229 49.0312 94.229ZM58.4512 101.995C57.9635 101.995 57.5169 101.906 57.1113 101.728C56.7103 101.546 56.373 101.268 56.0996 100.894H56.0176C56.0723 101.332 56.0996 101.746 56.0996 102.138V105.221H54.9648V94.3657H55.8877L56.0449 95.3911H56.0996C56.3913 94.981 56.7308 94.6847 57.1182 94.5024C57.5055 94.3201 57.9499 94.229 58.4512 94.229C59.4447 94.229 60.2103 94.5685 60.748 95.2476C61.2904 95.9266 61.5615 96.8791 61.5615 98.105C61.5615 99.3354 61.2858 100.292 60.7344 100.976C60.1875 101.655 59.4264 101.995 58.4512 101.995ZM58.2871 95.1929C57.5215 95.1929 56.9678 95.4048 56.626 95.8286C56.2842 96.2524 56.1087 96.9269 56.0996 97.8521V98.105C56.0996 99.1577 56.2751 99.9119 56.626 100.368C56.9769 100.819 57.5397 101.044 58.3145 101.044C58.9616 101.044 59.4674 100.782 59.832 100.258C60.2012 99.7342 60.3857 99.0119 60.3857 98.0913C60.3857 97.1571 60.2012 96.4416 59.832 95.9448C59.4674 95.4435 58.9525 95.1929 58.2871 95.1929ZM66.9688 94.229C67.3014 94.229 67.5999 94.2563 67.8643 94.311L67.707 95.3638C67.3971 95.2954 67.1237 95.2612 66.8867 95.2612C66.2806 95.2612 65.7611 95.5073 65.3281 95.9995C64.8997 96.4917 64.6855 97.1047 64.6855 97.8384V101.858H63.5508V94.3657H64.4873L64.6172 95.7534H64.6719C64.9499 95.2658 65.2848 94.8898 65.6768 94.6255C66.0687 94.3612 66.4993 94.229 66.9688 94.229ZM75.7324 98.105C75.7324 99.3263 75.4248 100.281 74.8096 100.969C74.1943 101.653 73.3444 101.995 72.2598 101.995C71.5898 101.995 70.9951 101.837 70.4756 101.523C69.9561 101.208 69.555 100.757 69.2725 100.169C68.9899 99.5815 68.8486 98.8934 68.8486 98.105C68.8486 96.8836 69.154 95.9334 69.7646 95.2544C70.3753 94.5708 71.223 94.229 72.3076 94.229C73.3558 94.229 74.1875 94.5776 74.8027 95.2749C75.4225 95.9722 75.7324 96.9155 75.7324 98.105ZM70.0244 98.105C70.0244 99.062 70.2158 99.7912 70.5986 100.292C70.9814 100.794 71.5443 101.044 72.2871 101.044C73.0299 101.044 73.5928 100.796 73.9756 100.299C74.363 99.798 74.5566 99.0666 74.5566 98.105C74.5566 97.1525 74.363 96.4302 73.9756 95.938C73.5928 95.4412 73.0254 95.1929 72.2734 95.1929C71.5306 95.1929 70.9701 95.4367 70.5918 95.9243C70.2135 96.4119 70.0244 97.1388 70.0244 98.105ZM81.1055 95.2476H79.1982V101.858H78.0635V95.2476H76.7236V94.7349L78.0635 94.3247V93.9077C78.0635 92.0666 78.8678 91.146 80.4766 91.146C80.873 91.146 81.3379 91.2257 81.8711 91.3853L81.5771 92.2944C81.1396 92.1532 80.766 92.0825 80.4561 92.0825C80.0277 92.0825 79.7109 92.2261 79.5059 92.5132C79.3008 92.7957 79.1982 93.2515 79.1982 93.8804V94.3657H81.1055V95.2476ZM83.6074 101.858H82.4727V94.3657H83.6074V101.858ZM82.377 92.3354C82.377 92.0757 82.4408 91.8866 82.5684 91.7681C82.696 91.645 82.8555 91.5835 83.0469 91.5835C83.2292 91.5835 83.3864 91.645 83.5186 91.7681C83.6507 91.8911 83.7168 92.0802 83.7168 92.3354C83.7168 92.5907 83.6507 92.7821 83.5186 92.9097C83.3864 93.0327 83.2292 93.0942 83.0469 93.0942C82.8555 93.0942 82.696 93.0327 82.5684 92.9097C82.4408 92.7821 82.377 92.5907 82.377 92.3354ZM87.1484 101.858H86.0137V91.2212H87.1484V101.858ZM92.7197 101.995C91.6123 101.995 90.7373 101.657 90.0947 100.983C89.4567 100.308 89.1377 99.3719 89.1377 98.1733C89.1377 96.9657 89.4339 96.0063 90.0264 95.2954C90.6234 94.5845 91.4232 94.229 92.4258 94.229C93.3646 94.229 94.1074 94.5389 94.6543 95.1587C95.2012 95.7739 95.4746 96.5874 95.4746 97.5991V98.3169H90.3135C90.3363 99.1965 90.5573 99.8641 90.9766 100.32C91.4004 100.776 91.9951 101.003 92.7607 101.003C93.5674 101.003 94.3649 100.835 95.1533 100.498V101.509C94.7523 101.682 94.3717 101.806 94.0117 101.878C93.6562 101.956 93.2256 101.995 92.7197 101.995ZM92.4121 95.1792C91.8105 95.1792 91.3298 95.3752 90.9697 95.7671C90.6143 96.159 90.4046 96.7013 90.3408 97.394H94.2578C94.2578 96.6785 94.0983 96.1317 93.7793 95.7534C93.4603 95.3706 93.0046 95.1792 92.4121 95.1792Z" fill="#424747"/>
<path d="M28.4619 137.858H27.2998V133.155H22.0361V137.858H20.874V127.864H22.0361V132.116H27.2998V127.864H28.4619V137.858ZM34.2041 137.995C33.0967 137.995 32.2217 137.657 31.5791 136.983C30.9411 136.308 30.6221 135.372 30.6221 134.173C30.6221 132.966 30.9183 132.006 31.5107 131.295C32.1077 130.584 32.9076 130.229 33.9102 130.229C34.849 130.229 35.5918 130.539 36.1387 131.159C36.6855 131.774 36.959 132.587 36.959 133.599V134.317H31.7979C31.8206 135.196 32.0417 135.864 32.4609 136.32C32.8848 136.776 33.4795 137.003 34.2451 137.003C35.0518 137.003 35.8493 136.835 36.6377 136.498V137.509C36.2367 137.682 35.8561 137.806 35.4961 137.878C35.1406 137.956 34.71 137.995 34.2041 137.995ZM33.8965 131.179C33.2949 131.179 32.8141 131.375 32.4541 131.767C32.0986 132.159 31.889 132.701 31.8252 133.394H35.7422C35.7422 132.679 35.5827 132.132 35.2637 131.753C34.9447 131.371 34.4889 131.179 33.8965 131.179ZM40.0352 137.858H38.9004V127.221H40.0352V137.858ZM45.9277 137.995C45.4401 137.995 44.9935 137.906 44.5879 137.728C44.1868 137.546 43.8496 137.268 43.5762 136.894H43.4941C43.5488 137.332 43.5762 137.746 43.5762 138.138V141.221H42.4414V130.366H43.3643L43.5215 131.391H43.5762C43.8678 130.981 44.2074 130.685 44.5947 130.502C44.9821 130.32 45.4264 130.229 45.9277 130.229C46.9212 130.229 47.6868 130.569 48.2246 131.248C48.7669 131.927 49.0381 132.879 49.0381 134.105C49.0381 135.335 48.7624 136.292 48.2109 136.976C47.6641 137.655 46.903 137.995 45.9277 137.995ZM45.7637 131.193C44.998 131.193 44.4443 131.405 44.1025 131.829C43.7607 132.252 43.5853 132.927 43.5762 133.852V134.105C43.5762 135.158 43.7516 135.912 44.1025 136.368C44.4535 136.819 45.0163 137.044 45.791 137.044C46.4382 137.044 46.944 136.782 47.3086 136.258C47.6777 135.734 47.8623 135.012 47.8623 134.091C47.8623 133.157 47.6777 132.442 47.3086 131.945C46.944 131.444 46.429 131.193 45.7637 131.193Z" fill="#424747"/>
<path d="M27.1562 65.5718L25.9121 62.3931H21.9062L20.6758 65.5718H19.5L23.4512 55.5366H24.4287L28.3594 65.5718H27.1562ZM25.5498 61.3472L24.3877 58.2505C24.2373 57.8586 24.0824 57.3778 23.9229 56.8081C23.8226 57.2456 23.679 57.7264 23.4922 58.2505L22.3164 61.3472H25.5498ZM33.0488 57.9565C34.0332 57.9565 34.7965 58.2938 35.3389 58.9683C35.8857 59.6382 36.1592 60.5884 36.1592 61.8188C36.1592 63.0493 35.8835 64.0063 35.332 64.6899C34.7852 65.369 34.0241 65.7085 33.0488 65.7085C32.5612 65.7085 32.1146 65.6196 31.709 65.4419C31.3079 65.2596 30.9707 64.9816 30.6973 64.6079H30.6152L30.376 65.5718H29.5625V54.9351H30.6973V57.519C30.6973 58.0978 30.679 58.6174 30.6426 59.0776H30.6973C31.2259 58.3302 32.0098 57.9565 33.0488 57.9565ZM32.8848 58.9067C32.11 58.9067 31.5518 59.13 31.21 59.5767C30.8682 60.0187 30.6973 60.7661 30.6973 61.8188C30.6973 62.8716 30.8727 63.6258 31.2236 64.0815C31.5745 64.5327 32.1374 64.7583 32.9121 64.7583C33.6094 64.7583 34.1289 64.5054 34.4707 63.9995C34.8125 63.4891 34.9834 62.7576 34.9834 61.8052C34.9834 60.8299 34.8125 60.103 34.4707 59.6245C34.1289 59.146 33.6003 58.9067 32.8848 58.9067ZM44.6152 61.8188C44.6152 63.0402 44.3076 63.995 43.6924 64.6831C43.0771 65.3667 42.2272 65.7085 41.1426 65.7085C40.4727 65.7085 39.8779 65.5513 39.3584 65.2368C38.8389 64.9224 38.4378 64.4712 38.1553 63.8833C37.8727 63.2954 37.7314 62.6073 37.7314 61.8188C37.7314 60.5975 38.0368 59.6473 38.6475 58.9683C39.2581 58.2847 40.1058 57.9429 41.1904 57.9429C42.2386 57.9429 43.0703 58.2915 43.6855 58.9888C44.3053 59.686 44.6152 60.6294 44.6152 61.8188ZM38.9072 61.8188C38.9072 62.7759 39.0986 63.505 39.4814 64.0063C39.8643 64.5076 40.4271 64.7583 41.1699 64.7583C41.9128 64.7583 42.4756 64.5099 42.8584 64.0132C43.2458 63.5119 43.4395 62.7804 43.4395 61.8188C43.4395 60.8664 43.2458 60.144 42.8584 59.6519C42.4756 59.1551 41.9082 58.9067 41.1562 58.9067C40.4134 58.9067 39.8529 59.1506 39.4746 59.6382C39.0964 60.1258 38.9072 60.8527 38.9072 61.8188ZM47.6777 58.0796V62.9399C47.6777 63.5506 47.8167 64.0063 48.0947 64.3071C48.3727 64.6079 48.8079 64.7583 49.4004 64.7583C50.1842 64.7583 50.7562 64.5441 51.1162 64.1157C51.4808 63.6873 51.6631 62.9878 51.6631 62.0171V58.0796H52.7979V65.5718H51.8613L51.6973 64.5669H51.6357C51.4033 64.936 51.0798 65.2186 50.665 65.4146C50.2549 65.6105 49.7855 65.7085 49.2568 65.7085C48.3454 65.7085 47.6618 65.492 47.2061 65.0591C46.7549 64.6261 46.5293 63.9334 46.5293 62.981V58.0796H47.6777ZM57.6309 64.772C57.8314 64.772 58.0251 64.7583 58.2119 64.731C58.3988 64.6991 58.5469 64.6672 58.6562 64.6353V65.5034C58.5332 65.5627 58.3509 65.6105 58.1094 65.647C57.8724 65.688 57.6582 65.7085 57.4668 65.7085C56.0176 65.7085 55.293 64.9451 55.293 63.4185V58.9614H54.2197V58.4146L55.293 57.9429L55.7715 56.3433H56.4277V58.0796H58.6016V58.9614H56.4277V63.3706C56.4277 63.8218 56.5348 64.1681 56.749 64.4097C56.9632 64.6512 57.2572 64.772 57.6309 64.772Z" fill="#424747"/>
<defs>
<clipPath id="clip0_11653_104474">
<rect width="125" height="33" fill="white" transform="translate(0.5 0.000976562)"/>
</clipPath>
<clipPath id="clip1_11653_104474">
<rect width="32" height="32" fill="white" transform="translate(93.5 1.00098)"/>
</clipPath>
</defs>
</svg>

<svg width="126" height="158" fill="none" xmlns="http://www.w3.org/2000/svg"><g clip-path="url(#a)"><g clip-path="url(#b)"><path fill-rule="evenodd" clip-rule="evenodd" d="M109.5 1.5a15.5 15.5 0 1 0 0 31 15.5 15.5 0 0 0 0-31Zm-7 12.5a7 7 0 1 1 14 0 7 7 0 0 1-14 0Zm-2.78 10.8a12.5 12.5 0 0 0 19.56 0A5.98 5.98 0 0 0 115 23h-1.14a10 10 0 0 1-8.72 0H104c-1.67 0-3.19.69-4.28 1.8Z" fill="#000"/><mask id="c" style="mask-type:luminance" maskUnits="userSpaceOnUse" x="94" y="1" width="31" height="32"><path fill-rule="evenodd" clip-rule="evenodd" d="M109.5 1.5a15.5 15.5 0 1 0 0 31 15.5 15.5 0 0 0 0-31Zm-7 12.5a7 7 0 1 1 14 0 7 7 0 0 1-14 0Zm-2.78 10.8a12.5 12.5 0 0 0 19.56 0A5.98 5.98 0 0 0 115 23h-1.14a10 10 0 0 1-8.72 0H104c-1.67 0-3.19.69-4.28 1.8Z" fill="#fff"/></mask><g mask="url(#c)"><path fill="#CED3D7" d="M93.5 1h32v32h-32z"/></g><circle cx="109.5" cy="17" r="15" stroke="#0D78AA" stroke-width="2"/></g></g><rect x="3" y="37.57" width="122" height="119" rx="5" fill="#fff" stroke="#D2D6D9"/><path d="m23.42 96.86 2.66-5h1.26L24 97.98v3.88h-1.17v-3.82l-3.33-6.18h1.27l2.65 5Zm11.6 1.25c0 1.22-.31 2.17-.93 2.86a3.25 3.25 0 0 1-2.55 1.03c-.66 0-1.26-.16-1.78-.48a3.12 3.12 0 0 1-1.2-1.35 4.71 4.71 0 0 1-.43-2.06c0-1.23.3-2.18.92-2.86a3.23 3.23 0 0 1 2.54-1.02 3.2 3.2 0 0 1 2.5 1.04c.62.7.93 1.65.93 2.84Zm-5.71 0c0 .95.2 1.68.57 2.18.39.5.95.75 1.7.75.74 0 1.3-.24 1.68-.74.39-.5.58-1.23.58-2.2 0-.95-.2-1.67-.58-2.16-.38-.5-.95-.75-1.7-.75-.74 0-1.3.25-1.68.73-.38.5-.57 1.22-.57 2.19Zm8.77-3.74v4.86c0 .6.14 1.06.42 1.36.28.3.71.45 1.3.45.79 0 1.36-.21 1.72-.64.36-.43.55-1.13.55-2.1v-3.93h1.13v7.49h-.94l-.16-1h-.06c-.23.36-.56.64-.97.84-.41.2-.88.3-1.41.3-.91 0-1.6-.22-2.05-.66-.45-.43-.68-1.12-.68-2.07v-4.9h1.15Zm10.95-.14c.33 0 .63.03.9.08l-.16 1.05c-.31-.06-.58-.1-.82-.1a2 2 0 0 0-1.56.74 2.7 2.7 0 0 0-.64 1.84v4.02H45.6v-7.5h.94l.13 1.4h.05a3.3 3.3 0 0 1 1-1.13c.4-.27.83-.4 1.3-.4Zm9.42 7.77a3.3 3.3 0 0 1-1.34-.27c-.4-.18-.74-.46-1.01-.84h-.08c.05.44.08.86.08 1.25v3.08h-1.14V94.37h.93l.15 1.02h.06a2.64 2.64 0 0 1 2.35-1.16c1 0 1.76.34 2.3 1.02.54.68.81 1.63.81 2.86s-.27 2.18-.83 2.87a2.77 2.77 0 0 1-2.28 1.02Zm-.16-6.8c-.77 0-1.32.2-1.66.63-.35.42-.52 1.1-.53 2.02v.26c0 1.05.18 1.8.53 2.26.35.45.91.67 1.68.67.65 0 1.16-.26 1.52-.78a3.7 3.7 0 0 0 .56-2.17c0-.93-.19-1.65-.56-2.15a1.8 1.8 0 0 0-1.54-.75Zm8.68-.97c.33 0 .63.03.9.08l-.16 1.05c-.31-.06-.59-.1-.82-.1a2 2 0 0 0-1.56.74 2.7 2.7 0 0 0-.64 1.84v4.02h-1.14v-7.5h.94l.13 1.4h.05a3.3 3.3 0 0 1 1-1.13c.4-.27.83-.4 1.3-.4Zm8.76 3.88c0 1.22-.3 2.17-.92 2.86a3.25 3.25 0 0 1-2.55 1.03c-.67 0-1.26-.16-1.78-.48a3.12 3.12 0 0 1-1.2-1.35 4.71 4.71 0 0 1-.43-2.06c0-1.23.3-2.18.91-2.86a3.23 3.23 0 0 1 2.55-1.02 3.2 3.2 0 0 1 2.5 1.04c.61.7.92 1.65.92 2.84Zm-5.7 0c0 .95.19 1.68.57 2.18.38.5.94.75 1.69.75.74 0 1.3-.24 1.69-.74.38-.5.58-1.23.58-2.2 0-.95-.2-1.67-.58-2.16-.39-.5-.95-.75-1.7-.75s-1.31.25-1.69.73c-.38.5-.57 1.22-.57 2.19Zm11.08-2.86H79.2v6.6h-1.14v-6.6h-1.34v-.52l1.34-.4v-.42c0-1.84.8-2.76 2.42-2.76a5 5 0 0 1 1.4.24l-.3.9a3.76 3.76 0 0 0-1.12-.2c-.43 0-.75.14-.95.42-.2.29-.31.74-.31 1.37v.49h1.9v.88Zm2.5 6.6h-1.14v-7.48h1.14v7.49Zm-1.23-9.51c0-.26.06-.45.19-.57a.66.66 0 0 1 .48-.19c.18 0 .34.06.47.19.13.12.2.31.2.57 0 .25-.07.44-.2.57a.67.67 0 0 1-.47.18.66.66 0 0 1-.48-.18c-.13-.13-.2-.32-.2-.57Zm4.77 9.52H86V91.22h1.14v10.64Zm5.57.14c-1.1 0-1.98-.34-2.63-1.02a3.93 3.93 0 0 1-.95-2.8c0-1.21.3-2.17.89-2.88.6-.72 1.4-1.07 2.4-1.07.93 0 1.68.3 2.22.93.55.61.82 1.43.82 2.44v.72h-5.16c.03.88.25 1.54.67 2 .42.46 1.02.68 1.78.68.8 0 1.6-.17 2.4-.5v1a5.75 5.75 0 0 1-2.44.5Zm-.3-6.82c-.6 0-1.09.2-1.45.59-.36.39-.57.93-.63 1.62h3.92c0-.71-.16-1.26-.48-1.64a1.68 1.68 0 0 0-1.37-.57Zm-63.96 42.68H27.3v-4.7h-5.26v4.7h-1.17v-10h1.17v4.26h5.26v-4.26h1.16v10Zm5.74.13c-1.1 0-1.98-.33-2.62-1a3.93 3.93 0 0 1-.96-2.82c0-1.2.3-2.16.9-2.88a2.98 2.98 0 0 1 2.39-1.06c.94 0 1.68.3 2.23.93.55.61.82 1.43.82 2.44v.72H31.8c.02.88.24 1.54.66 2 .42.46 1.02.68 1.79.68a6 6 0 0 0 2.39-.5v1a5.75 5.75 0 0 1-2.44.5Zm-.3-6.81c-.6 0-1.09.2-1.45.59a2.7 2.7 0 0 0-.62 1.62h3.91c0-.71-.16-1.26-.48-1.64a1.68 1.68 0 0 0-1.36-.57Zm6.14 6.68H38.9v-10.64h1.14v10.64Zm5.89.13a3.3 3.3 0 0 1-1.34-.26c-.4-.18-.74-.46-1.01-.84h-.09c.06.44.09.86.09 1.25v3.08h-1.14v-10.85h.92l.16 1.02h.06a2.64 2.64 0 0 1 2.35-1.16c1 0 1.76.34 2.3 1.02.54.68.8 1.63.8 2.85 0 1.24-.27 2.2-.82 2.88a2.77 2.77 0 0 1-2.28 1.02Zm-.17-6.8c-.76 0-1.32.22-1.66.64-.34.42-.51 1.1-.52 2.02v.25c0 1.06.17 1.81.52 2.27.35.45.92.67 1.7.67.64 0 1.14-.26 1.5-.78a3.7 3.7 0 0 0 .56-2.17c0-.93-.18-1.65-.55-2.15a1.8 1.8 0 0 0-1.55-.75Zm-18.6-65.62L25.9 62.4h-4l-1.23 3.18H19.5l3.95-10.03h.98l3.93 10.03h-1.2Zm-1.61-4.22-1.16-3.1c-.15-.4-.3-.87-.47-1.44-.1.44-.24.92-.43 1.44l-1.17 3.1h3.23Zm7.5-3.4c.98 0 1.75.34 2.29 1.02.55.67.82 1.62.82 2.85s-.28 2.19-.83 2.87a2.77 2.77 0 0 1-2.28 1.02 3.3 3.3 0 0 1-1.34-.27c-.4-.18-.74-.46-1.01-.83h-.08l-.24.96h-.82V54.94h1.14v2.58c0 .58-.02 1.1-.06 1.56h.06c.53-.75 1.31-1.12 2.35-1.12Zm-.17.96c-.77 0-1.33.22-1.67.67-.34.44-.51 1.19-.51 2.24 0 1.05.17 1.8.52 2.26.35.45.92.68 1.7.68.69 0 1.2-.25 1.55-.76.34-.51.51-1.24.51-2.2 0-.97-.17-1.7-.5-2.18-.35-.47-.88-.71-1.6-.71Zm11.74 2.9c0 1.23-.31 2.18-.93 2.87a3.26 3.26 0 0 1-2.55 1.03 3.4 3.4 0 0 1-1.78-.47 3.11 3.11 0 0 1-1.2-1.36 4.72 4.72 0 0 1-.43-2.06c0-1.22.3-2.17.92-2.85a3.23 3.23 0 0 1 2.54-1.03c1.05 0 1.88.35 2.5 1.05.62.7.93 1.64.93 2.83Zm-5.71 0c0 .97.19 1.7.57 2.2.38.5.95.75 1.69.75s1.3-.25 1.69-.75c.39-.5.58-1.23.58-2.2 0-.94-.2-1.67-.58-2.16-.38-.5-.95-.74-1.7-.74s-1.3.24-1.69.73a3.57 3.57 0 0 0-.56 2.18Zm8.77-3.73v4.86c0 .61.14 1.07.41 1.37.28.3.72.45 1.31.45.78 0 1.36-.22 1.72-.64.36-.43.54-1.13.54-2.1v-3.94h1.14v7.5h-.94l-.16-1.01h-.06c-.24.37-.56.65-.98.84-.4.2-.87.3-1.4.3-.91 0-1.6-.22-2.05-.65-.46-.43-.68-1.13-.68-2.08v-4.9h1.15Zm9.95 6.7a4.01 4.01 0 0 0 1.03-.14v.86a3.8 3.8 0 0 1-1.19.2c-1.45 0-2.18-.75-2.18-2.28v-4.46h-1.07v-.55l1.07-.47.48-1.6h.66v1.74h2.17v.88h-2.17v4.41c0 .45.1.8.32 1.04.21.24.5.36.88.36Z" fill="#424747"/><defs><clipPath id="a"><path fill="#fff" transform="translate(.5)" d="M0 0h125v33H0z"/></clipPath><clipPath id="b"><path fill="#fff" transform="translate(93.5 1)" d="M0 0h32v32H0z"/></clipPath></defs></svg>
